fs/person_circle_12_regular.svg

<svg viewBox="0 0 12 12" fill="none" xmlns="http://www.w3.org/2000/svg" height="1em" width="1em">
  <path d="M4.21693 6.26447C4.34752 6.1176 4.54252 6 4.775 6H7.225C7.45748 6 7.65248 6.1176 7.78307 6.26447C7.91264 6.41021 8 6.60757 8 6.80999V6.96999C8 7.7872 7.18342 8.5 6 8.5C4.81658 8.5 4 7.7872 4 6.96999V6.80999C4 6.60757 4.08736 6.41021 4.21693 6.26447ZM6 5C6.55228 5 7 4.55228 7 4C7 3.44772 6.55228 3 6 3C5.44772 3 5 3.44772 5 4C5 4.55228 5.44772 5 6 5ZM6 11C8.76142 11 11 8.76142 11 6C11 3.23858 8.76142 1 6 1C3.23858 1 1 3.23858 1 6C1 8.76142 3.23858 11 6 11ZM6 10C3.79086 10 2 8.20914 2 6C2 3.79086 3.79086 2 6 2C8.20914 2 10 3.79086 10 6C10 8.20914 8.20914 10 6 10Z" fill="#212121"/>
</svg>

<svg viewBox="0 0 12 12" fill="none" xmlns="http://www.w3.org/2000/svg" height="1em" width="1em">
  <path d="M4.217 6.264A.753.753 0 0 1 4.775 6h2.45c.232 0 .427.118.558.264A.84.84 0 0 1 8 6.81v.16c0 .817-.817 1.53-2 1.53s-2-.713-2-1.53v-.16c0-.202.087-.4.217-.546ZM6 5a1 1 0 1 0 0-2 1 1 0 0 0 0 2Zm0 6A5 5 0 1 0 6 1a5 5 0 0 0 0 10Zm0-1a4 4 0 1 1 0-8 4 4 0 0 1 0 8Z" fill="#212121"/>
</svg>
